X: 8218
T: Copenhagen Harbour
R: hornpipe
M: 4/4
K: Dmajor
|:f|edBF ABdf|agbg afdf|egab agea|gfed edBF|
[1AEFD GEAG|FAdf efga|bged cAag|fdfe d3:|
[2(3ABA GB AFDF|E2GB Acea|bged cAag|fdfe d2||
|:fg|aba^g a=gfe|dDGB BAA2|(3EFG Bd gabg|aAdf fee2|
FAdF GBeg|agfe dgBg|bged cAag|1 fdfe d2:|2 fdfe d3||

